X:3
T:Adsons Saraband
M:6/4
L:1/4
K:D
f2f e2d | fga e2d | cde fBc | dcB A2G |
FGA FGA | Bcd c2B | Aef gBc | def e2d ||
%
%
